!!!COM: Scriabin, Alexander
!!!OTL@@FR: Prélude
!!!OTL@@EN: Prelude
!!!OPR@@FR: 5 Préludes
!!!OPR@@EN: 5 Preludes
!!!OPS: 74
!!!ONM: 1
!!!ODT: 1914
!!!AGN: Prelude
**kern	**kern	**dynam
*staff2	*staff1	*staff1/2
*Ipiano	*Ipiano	*
*clefF4	*clefG2	*
*k[]	*k[]	*
*X:	*X:	*
*M3/4	*M3/4	*
*	*^	*
*	*	*^	*
4BB#X 4F#X 4en	12a\L	6cc#X	6ee#X	.
.	12g#X\	.	.	.
.	12gn\J	12a#X	12ff#X	.
=1	=1	=1	=1	=1
16c#XLL	[4f#X\	[4b-X	[4gg	.
16D#X	.	.	.	.
16AA	.	.	.	.
16AAJJ	.	.	.	.
8AAA	20f#\LL]	10.b-]	10.gg]	.
.	20fn\	.	.	.
.	20f#X\	.	.	.
8r	.	.	.	.
.	20g\	10cc#X	10ff#X	.
.	20g#X\JJ	.	.	.
4BB#X 4F#X 4en	12a\L	6cc#	6ee#X	.
.	12g#\	.	.	.
.	12gn\J	12a#X	12ff#	.
=2	=2	=2	=2	=2
16c#XLL	8f#X\L	2b-X	2gg	.
16D#X	.	.	.	.
16AA	[8f#\J	.	.	.
16AAJJ	.	.	.	.
8AAA	16f#\LL]	.	.	.
.	16g\	.	.	.
8r	16f#\	.	.	.
.	16fn\JJ	.	.	.
4FF#X 4Cn 4G 4d-X	4e\	12ccnL	6aa-X	.
.	.	12bn	.	.
.	.	12b-XJ	12aan	.
=3	=3	=3	=3	=3
[16qqCC/LL	.	.	.	.
[16qqFF#X/JJ	.	.	.	.
2.CC] 2.FF#] 2.E 2.B-X [2.e	8a\	[2.dd-X	[2.bb-X	.
.	4a\	.	.	.
.	4a\	.	.	.
.	[8a\	.	.	.
=4	=4	=4	=4	=4
*^	*	*	*	*
2ryy	2C 2F#X 2e]	8a\]	4.dd-]	4.bb-]	.
.	.	4a\	.	.	.
.	.	8a\	8ddn	8aa	.
12fnL	4G-X 4c	[4b--\	8ee-XL	[4aa-X	.
12f-X	.	.	.	.	.
.	.	.	8eenJ	.	.
12e-XJ	.	.	.	.	.
=5	=5	=5	=5	=5	=5
*	*^	*	*	*	*
4.E-X\	[2G-X	4.dn	8b--\]	[2ff	2aa-_	.
.	.	.	4b--\	.	.	.
[8Dn\	.	[8d-X	4b--\	.	.	.
8D\L]	8G-L]	8d-L]	.	8ffL]	8aa-L]	.
8AA-X\J	8DJ	8cJ	[8b--\	8ffJ	8aa-XJ	.
=6	=6	=6	=6	=6	=6	=6
4.DD\ 4.AA-X	4.G-X	4.c	8b--\]	4.ff	4.aa-X	.
.	.	.	4b--\	.	.	.
*clefG2	*	*	*	*	*	*
8r	8d	8g#X	8cc\	8ff#X	8bbn	.
4B-X/	4e	12aL	[4dd-X\	8ggnL	[4ccc	.
.	.	12a-X	.	.	.	.
.	.	.	.	8gg#XJ	.	.
.	.	12gnJ	.	.	.	.
*clefF4	*	*	*	*	*	*
=7	=7	=7	=7	=7	=7	=7
4.G\	[2B-X	4.f#X	8dd-\]	[2aa	2ccc_	.
.	.	.	4dd-X\	.	.	.
[8F#X\	.	[8fn	4dd-\	.	.	.
8F#\L]	8B-L]	8fL]	.	8aaL]	8cccL]	.
8E-X\J	8AJ	8f-XJ	8cc\	8ggJ	8ddd-XJ	.
*	*v	*v	*	*	*	*
*v	*v	*	*	*	*
=8	=8	=8	=8	=8
8E-XL 8A 8f-X	8cc\L	8ggL	8ddd-XL	.
8E-J 8A 8g	8dd-X\J	8bb-XJ	8dddnJ	.
4F#X 4B-X 4e	4a\	4dd-	8bb-L	.
.	.	.	8bb-J	.
4F# 4c 4b-X	12ee-X\L	6gg	6bbn	.
.	12ddn\	.	.	.
.	12dd-X\J	12een	12ccc	.
=9	=9	=9	=9	=9
16gLL	[4cc\	[4ff-X	[4ddd-X	.
16A	.	.	.	.
16E-X	.	.	.	.
16E-JJ	.	.	.	.
8EE-X	20cc\LL]	10.ff-]	10.ddd-]	.
.	20cc-X\	.	.	.
.	20ccn\	.	.	.
8r	.	.	.	.
.	20dd-X\	10gg	10ccc	.
.	20ddn\JJ	.	.	.
4F#X 4c 4b-X	12ee-X\L	6gg	6bbn	.
.	12dd\	.	.	.
.	12dd-X\J	12een	12ccc	.
=10	=10	=10	=10	=10
16gLL	8cc\L	2ff-X	2ddd-X	.
16A	.	.	.	.
16E-X	[8cc\J	.	.	.
16E-JJ	.	.	.	.
8EE-X	16cc\LL]	.	.	.
.	16dd-X\	.	.	.
8r	16cc\	.	.	.
.	16b\JJ	.	.	.
4BB#X 4F#X 4c#X 4g	4a#X\	12ff#XL	6dddn	.
.	.	12ee#X	.	.
.	.	12eenJ	12ddd#X	.
=11	=11	=11	=11	=11
[16qqFF#X/LL	.	.	.	.
[16qqBB#X/JJ	.	.	.	.
*^	*	*	*	*
2.a#X	2.FF#_ 2.BB#_ [2.A#X [2.e	8dd#X\	[2.gg	[2.eee	.
.	.	4dd#\	.	.	.
.	.	4dd#\	.	.	.
.	.	[8dd#\	.	.	.
=12	=12	=12	=12	=12	=12
2g	2FF#] 2BB#] 2A#] 2e]	8dd#\]	2gg]	2eee]	.
.	.	4dd#X\	.	.	.
.	.	8dd#\	.	.	.
4rEE	4BB#X 4F#X 4c#X 4g	4a#X\	12ff#XL	6dddn	.
.	.	.	12ee#X	.	.
.	.	.	12eenJ	12ddd#X	.
=13	=13	=13	=13	=13	=13
.	[16qqFF#X/LL	.	.	.	.
.	[16qqBB#X/JJ	.	.	.	.
2.a#X	2.FF#_ 2.BB#_ [2.A#X [2.e	8dd#X\	[2.gg	[2.eee	.
.	.	4dd#\	.	.	.
.	.	4dd#\	.	.	.
.	.	[8dd#\	.	.	.
=14	=14	=14	=14	=14	=14
2g	2FF#] 2BB#] 2A#] 2e]	8dd#\]	2gg]	2eee]	.
.	.	4dd#X\	.	.	.
.	.	8dd#\	.	.	.
4rEE	4BB#X 4F#X 4A#X	12f#X\L	4gn	6ddn	.
.	.	12e#X\	.	.	.
.	.	12en\J	.	12dd#X	.
*v	*v	*	*	*	*
=15	=15	=15	=15	=15
[2.FF#X [2.BB#X [2.A#X	4d#X\	[2.g	[2.ee	.
.	[2dn\	.	.	.
=16	=16	=16	=16	=16
2.FF#] 2.BB#] 2.A#]	2.d\]	2.g]	2.ee]	.
*	*	*v	*v	*
*	*v	*v	*
==	==	==
*-	*-	*-
!!!system-decoration: {(*)}
!!!ENC: Bryan Jacob Bell
!!!END: November 2021 to April 2022
!!!PED: Günter Philipp
!!!PTL: Ausgewählte Klavierwerke (Edition Peters)
